X: 1698
T: The Old Vest and Cravat
M:4/4
L:1/8
B:O'Neill's 1698
N:"collected by F.O'Neill"
K:D
F-G \
| ABGA FGAB | cBcA d2 d-e | fedcAGFG | Adced2F-G |
| ABGA FGAB | cBcAd2 d-e | fedcAGED | D2DDD2 :|
|: F-G \
| Addef2 e-d | dcAGA2A-G | Addef2 e_d | dced d2d-e |
| fdef defg | fdcA cdef | dfed cAGE | D2DDD2 :|


